X:128
T:Molloy's* (r)
B:NFID.077a  ("untitled reel")
128molloy
S:JD
L:1/8
M:C
R:reel % A-B-A, ending |GBAG FDD2|
Q:360
K:D
A2Bc|:d2Ad fdAF|GFEF GABc|(3ddd Ad fdAF|GBAG FEDc|
d2Ad fdAF|GFEF GABc|dcde fdAF|1 GBAG FDDc:|2 GBAG FDDg||
fgaf bgag|fgaf gbeg|fgag bagf|gbag fddg|
fgaf bgag|fgaf gfeg|fedc dcBA|^GABc dfec||

%%%

